X:1
T:There’s a Fountain Free
T:There’s a Fountain Free
T: Asa Brooks Everett
T:Mary Bridges Canedy Slade, 1876
T:Public Domain Courtesy of the Cyber Hymnal™
C:Asa Brooks Everett
Z:Public Domain
Z:Courtesy of the Cyber Hymnal™
%%score 1 2
L:1/8
Q:1/4=108
M:4/4
K:G
V:1 treble 
V:2 bass 
V:1
 [DG][DA] | [GB]2 [GB]2 [GB]2 [Ac][GB] | [FA]2 [FA]2 [FA]2 [GB][FA] | [EG]2 [EG]2 [EG]2 [EF][EG] | %4
w: 1.~There’s a|fount- ain free, ’tis for|you and me: Let us|haste, O haste to its|
w: 2.~There’s a|liv- ing stream, with a|crys- tal gleam: From the|throne of life now it|
w: 3.~There’s a|rock that’s cleft and no|soul is left, That may|not its pure wa- ters|
 [FA]6 [DG][DA] | [GB]2 [GB]2 [GB]2 [Ac][GB] | [FA]2 [FA]2 [FA]2 [GB][FA] | %7
w: brink; ’Tis the|fount of love from the|source a- bove, And He|
w: flows; While the|wa- ters roll let the|wear- y soul Hear the|
w: share; ’Tis for|you and me, and its|stream I see: Let us|
 [EG]2 [EG]2 [EA]2 [DG][DF] | [DG]6 ||"^Refrain" [GB][Ac] | [Bd]6 [Ac][GB] | %11
w: bids us all free- ly|drink.|||
w: call that forth free- ly|goes.|Will you|come to the|
w: hast- en joy- ful- ly|there.|||
 [FA]2 [FA]2 [FA]2 [FA][GB] | [Ac]6 [GB][FA] | [GB]2 [GB]2 [GB]2 [GB][Ac] | [Bd]6 [Ac][GB] | %15
w: ||||
w: fount- ain free? Will you|come? ’tis for|you and me; Thirst- y|soul hear the|
w: ||||
 [FA]2 [FA]2 [FA]2 [GB][FA] | [EG]2 [EG]2 [EA]2 [DG][DF] | [DG]6 |] %18
w: |||
w: wel- come call: ’Tis a|fount- ain o- pened for|all.|
w: |||
V:2
 [G,B,][G,C] | [G,D]2 [G,D]2 [G,D]2 [F,D][G,D] | [D,D]2 [D,D]2 [D,D]2 [D,D][D,C] | %3
w: ~ ~|~ ~ ~ ~ ~|~ ~ ~ ~ ~|
 [E,B,]2 [E,B,]2 [E,B,]2 [E,B,][E,B,] | [D,D]6 [G,B,][G,C] | [G,D]2 [G,D]2 [G,D]2 [F,D][G,D] | %6
w: ~ ~ ~ ~ ~|~ ~ ~|~ ~ ~ ~ ~|
 [D,D]2 [D,D]2 [D,D]2 [D,D][D,C] | [E,B,]2 [E,B,]2 [C,C]2 [D,B,][D,A,] | [G,,B,]6 || z2 | %10
w: ~ ~ ~ ~ ~|~ ~ ~ ~ ~|~||
 z2 [G,D]>[G,D] [G,D]2 [F,D][G,D] | [D,D]2 [D,D]2 [D,D]2 z2 | z2 [D,D]>[D,D] [D,D]2 [D,D][D,D] | %13
w: Will you come, ~ ~|~ ~ ~|Will you come, ~ ~|
 [G,D]2 [G,D]2 [G,D]2 z2 | z2 [G,D]>[G,D] [G,D]2 [F,D][G,D] | [D,D]2 [D,D]2 [D,D]2 [D,D][D,C] | %16
w: ~ ~ ~|Thirst- y soul, * *||
 [E,B,]2 [E,B,]2 [C,C]2 [D,B,][D,A,] | [G,,B,]6 |] %18
w: ||

